X: 10482
Q: "Lively"
M: 6/8
L: 1/8
K: D
!segno!A |\
a |\
afa afa | bgb bgb | afa agf | eee efg |\
a3 f3 | d>de fdB | A2g faf | ddd d2 !segno!|]


